src/assets/icons/buy.svg

<svg width="24" height="24" viewBox="0 0 24 24" fill="none" xmlns="http://www.w3.org/2000/svg">
<path d="M9.5 19C9.5 19.8284 8.82843 20.5 8 20.5C7.17157 20.5 6.5 19.8284 6.5 19C6.5 18.1716 7.17157 17.5 8 17.5C8.82843 17.5 9.5 18.1716 9.5 19Z" stroke="#1D2129" stroke-width="1.5" stroke-linecap="round" stroke-linejoin="round"/>
<path d="M17.5 19C17.5 19.8284 16.8284 20.5 16 20.5C15.1716 20.5 14.5 19.8284 14.5 19C14.5 18.1716 15.1716 17.5 16 17.5C16.8284 17.5 17.5 18.1716 17.5 19Z" stroke="#1D2129" stroke-width="1.5" stroke-linecap="round" stroke-linejoin="round"/>
<path d="M3 2.75C2.58579 2.75 2.25 3.08579 2.25 3.5C2.25 3.91421 2.58579 4.25 3 4.25V2.75ZM19.0559 14.2456C19.2915 13.9049 19.2063 13.4377 18.8657 13.2021C18.525 12.9665 18.0578 13.0517 17.8222 13.3924L19.0559 14.2456ZM19.5258 9.8867C19.3442 10.259 19.4988 10.708 19.8711 10.8896C20.2434 11.0712 20.6924 10.9166 20.874 10.5443L19.5258 9.8867ZM8 6.25L17.6988 6.25V4.75L8 4.75V6.25ZM16.2232 14.25H8V15.75H16.2232V14.25ZM5.75 12V11.5H4.25V12H5.75ZM5.75 11.5V8.5H4.25V11.5H5.75ZM5.75 11.5V5.5H4.25V11.5H5.75ZM19.7211 9.4864L19.5258 9.8867L20.874 10.5443L21.0692 10.144L19.7211 9.4864ZM17.8222 13.3924L17.8012 13.4227L19.0349 14.2759L19.0559 14.2456L17.8222 13.3924ZM8 14.25C6.75736 14.25 5.75 13.2426 5.75 12H4.25C4.25 14.0711 5.92893 15.75 8 15.75V14.25ZM16.2232 15.75C17.3456 15.75 18.3965 15.1991 19.0349 14.2759L17.8012 13.4227C17.4429 13.9408 16.8531 14.25 16.2232 14.25V15.75ZM17.6988 6.25C19.3618 6.25 20.4501 7.99177 19.7211 9.4864L21.0692 10.144C22.2843 7.65295 20.4704 4.75 17.6988 4.75V6.25ZM5.75 5.5C5.75 3.98122 4.51878 2.75 3 2.75V4.25C3.69036 4.25 4.25 4.80964 4.25 5.5H5.75ZM8 4.75C5.92893 4.75 4.25 6.42893 4.25 8.5H5.75C5.75 7.25736 6.75736 6.25 8 6.25V4.75Z" fill="#1D2129"/>
</svg>

<svg width="24" height="24" fill="none" xmlns="http://www.w3.org/2000/svg"><path d="M9.5 19a1.5 1.5 0 1 1-3 0 1.5 1.5 0 0 1 3 0M17.5 19a1.5 1.5 0 1 1-3 0 1.5 1.5 0 0 1 3 0" stroke="#1D2129" stroke-width="1.5" stroke-linecap="round" stroke-linejoin="round"/><path d="M3 2.75a.75.75 0 0 0 0 1.5zm16.056 11.496a.75.75 0 0 0-1.234-.854zm.47-4.36a.75.75 0 1 0 1.348.658zM8 6.25h9.699v-1.5H8zm8.223 8H8v1.5h8.223zM5.75 12v-.5h-1.5v.5zm0-.5v-3h-1.5v3zm0 0v-6h-1.5v6zm13.971-2.014-.195.4 1.348.658.195-.4zm-1.899 3.906-.02.03 1.233.854.02-.03zM8 14.25A2.25 2.25 0 0 1 5.75 12h-1.5A3.75 3.75 0 0 0 8 15.75zm8.223 1.5c1.123 0 2.174-.55 2.812-1.474l-1.234-.853a1.92 1.92 0 0 1-1.578.827zm1.476-9.5c1.663 0 2.751 1.742 2.022 3.236l1.348.658c1.215-2.491-.599-5.394-3.37-5.394zM5.75 5.5A2.75 2.75 0 0 0 3 2.75v1.5c.69 0 1.25.56 1.25 1.25zM8 4.75A3.75 3.75 0 0 0 4.25 8.5h1.5A2.25 2.25 0 0 1 8 6.25z" fill="#1D2129"/></svg>
